X: 906
T: Snowshoes
B: jims roots
M:4/4
L:1/8
Q: 1/4=100
K:D
V:1 
(3ABc |:"D"d2a2f3 a |fedf edBA | (3dcB AG (3FAF DF | "A"GECA, B,CA,C |
"D"D2 a2 f3 a | fedf edBd | AFAd Bcda | [1 "A"fdec "D"d2 (3ABc:| [2 "A"fdec "D"d2 FE||
|:"D"D2 DF "Em"EDED | "F#m"FEFD "G"GFGB |"D"AFAd BcdA | "A"ce (3BcB AFEC |
"D"DCDF "Em"EDED | "F#m"FEFD "G"GFGB | "D"AFAd Bcda | [1 "A"fdAc "D"d2 FE:| [2 "A"fdAc "D"d2|]
% abcbook-tune_id 6298c287d58a40f3a0447f81


% abcbook-boost 0
% abcbook-tablature 
% abcbook-transpose 
% abcbook-lastupdated 1654178440605
% abcbook-soundfonts 
% abcbook-repeats 1


